X:676
T:Calton Weaver
T:Nancy Whisky
Z:Nigel Gatherer
M:2/4
L:1/8
K:D
V1:
D>D Fd | ed BA | D>D FA | BA A2  |
BA  dF | ED BA | D>D FF | EE A2- | A3 z |]
V2:
F>F AA | GF ED | F>F AA | GF E2 |
dc  Bd | BA ED | F>A df | ag f2- | f3 z |]
<end>
<start>
